assets/sticky.svg

<svg xmlns="http://www.w3.org/2000/svg" fill="none" viewBox="0 0 28 28">
  <path fill="#2A2238" d="M3 0C2.20435 0 1.44129.316071.87868.87868.316071 1.44129 0 2.20435 0 3v22c0 .7956.316071 1.5587.87868 2.1213C1.44129 27.6839 2.20435 28 3 28h12.172c.7954-.0007 1.5579-.3172 2.12-.88l9.83-9.828c.562-.5624.8778-1.3249.878-2.12V3c0-.79565-.3161-1.55871-.8787-2.12132C26.5587.316071 25.7956 0 25 0H3ZM2 3c0-.26522.10536-.51957.29289-.70711C2.48043 2.10536 2.73478 2 3 2h22c.2652 0 .5196.10536.7071.29289C25.8946 2.48043 26 2.73478 26 3v11h-9c-.7956 0-1.5587.3161-2.1213.8787C14.3161 15.4413 14 16.2044 14 17v9H3c-.26522 0-.51957-.1054-.70711-.2929C2.10536 25.5196 2 25.2652 2 25V3Zm14 22.586V17c0-.2652.1054-.5196.2929-.7071S16.7348 16 17 16h8.586L16 25.586Z"/>
</svg>

<svg width="28" height="28" viewBox="0 0 28 28" fill="none" xmlns="http://www.w3.org/2000/svg">
<path d="M3 0C2.20435 0 1.44129 0.316071 0.87868 0.87868C0.316071 1.44129 0 2.20435 0 3V25C0 25.7956 0.316071 26.5587 0.87868 27.1213C1.44129 27.6839 2.20435 28 3 28H15.172C15.9674 27.9993 16.7299 27.6828 17.292 27.12L27.122 17.292C27.684 16.7296 27.9998 15.9671 28 15.172V3C28 2.20435 27.6839 1.44129 27.1213 0.87868C26.5587 0.316071 25.7956 0 25 0H3ZM2 3C2 2.73478 2.10536 2.48043 2.29289 2.29289C2.48043 2.10536 2.73478 2 3 2H25C25.2652 2 25.5196 2.10536 25.7071 2.29289C25.8946 2.48043 26 2.73478 26 3V14H17C16.2044 14 15.4413 14.3161 14.8787 14.8787C14.3161 15.4413 14 16.2044 14 17V26H3C2.73478 26 2.48043 25.8946 2.29289 25.7071C2.10536 25.5196 2 25.2652 2 25V3ZM16 25.586V17C16 16.7348 16.1054 16.4804 16.2929 16.2929C16.4804 16.1054 16.7348 16 17 16H25.586L16 25.586Z" fill="#2A2238"/>
</svg>
